source/manual/Azure Blueprints_COLOR.svg

<?xml version="1.0" encoding="UTF-8" standalone="no"?>
<svg
   xmlns:dc="http://purl.org/dc/elements/1.1/"
   xmlns:cc="http://creativecommons.org/ns#"
   xmlns:rdf="http://www.w3.org/1999/02/22-rdf-syntax-ns#"
   xmlns:svg="http://www.w3.org/2000/svg"
   xmlns="http://www.w3.org/2000/svg"
   xmlns:sodipodi="http://sodipodi.sourceforge.net/DTD/sodipodi-0.dtd"
   xmlns:inkscape="http://www.inkscape.org/namespaces/inkscape"
   aria-hidden="true"
   role="presentation"
   version="1.1"
   id="svg25"
   sodipodi:docname="Azure Blueprints_COLOR.svg"
   width="132"
   height="127"
   inkscape:version="0.92.2 (5c3e80d, 2017-08-06)">
  <metadata
     id="metadata31">
    <rdf:RDF>
      <cc:Work
         rdf:about="">
        <dc:format>image/svg+xml</dc:format>
        <dc:type
           rdf:resource="http://purl.org/dc/dcmitype/StillImage" />
      </cc:Work>
    </rdf:RDF>
  </metadata>
  <defs
     id="defs29" />
  <sodipodi:namedview
     pagecolor="#ffffff"
     bordercolor="#666666"
     borderopacity="1"
     objecttolerance="10"
     gridtolerance="10"
     guidetolerance="10"
     inkscape:pageopacity="0"
     inkscape:pageshadow="2"
     inkscape:window-width="640"
     inkscape:window-height="480"
     id="namedview27"
     showgrid="false"
     inkscape:zoom="2.36"
     inkscape:cx="50"
     inkscape:cy="77"
     inkscape:window-x="0"
     inkscape:window-y="0"
     inkscape:window-maximized="0"
     inkscape:current-layer="svg25" />
  <svg
     id="svg-blueprints"
     version="1.1"
     width="100%"
     height="100%">
    <path
       d="m 116.6,124.111 c -1.32,0 0.025,0.272 -1.1,0 V 110.396 H 16.5005 c -0.561,0 -13.75001,-0.127 -13.75001,-11.0676 V 13.555 c 0,-7.41524 6.41575,-10.79084 12.37501,-10.79084 5.9592,0 12.375,3.37837 12.375,10.79084 v 2.7669 h 77.2745 c 14.87,0 24.475,4.5156 24.475,19.6449 V 115.93 c 0,6.209 -5.557,8.181 -12.65,8.181 z"
       id="path2"
       inkscape:connector-curvature="0"
       style="fill:#59b4d9" />
    <path
       d="m 116.6,124.111 c -1.32,0 0.025,0.272 -1.1,0 V 110.396 H 16.5005 c -0.561,0 -13.75001,-0.127 -13.75001,-11.0676 V 13.555 c 0,-7.41524 6.41575,-10.79084 12.37501,-10.79084 5.9592,0 12.375,3.37837 12.375,10.79084 v 2.7669 h 77.2745 c 14.87,0 24.475,4.5156 24.475,19.6449 V 115.93 c 0,6.209 -5.557,8.181 -12.65,8.181 z"
       id="path4"
       inkscape:connector-curvature="0"
       style="opacity:0.7;fill:#ffffff" />
    <path
       d="M 104.775,13.5577 H 30.25 C 30.25,5.25708 23.375,0 15.125,0 6.875,0 0,5.25708 0,13.5577 c 0,0 0,71.939 0,83.0066 0,13.8347 8.25,16.6017 16.5,16.6017 h 96.25 V 127 c 0,0 19.25,0 19.25,-13.834 V 35.9695 C 132,19.3682 123.75,13.5577 104.775,13.5577 Z M 126.5,113.719 c 0,0 -5.5,-6.087 -16.225,-6.087 H 16.5 c -5.5,0 -11,-1.384 -11,-9.6843 0,-4.7037 3.575,-9.6841 11,-9.6841 8.25,0 13.475,8.3007 13.475,8.3007 H 30.25 V 19.0915 h 77.275 c 11,0 18.975,3.0436 18.975,14.1111 z"
       id="path6"
       inkscape:connector-curvature="0"
       style="fill:#0072c6" />
    <path
       d="m 96.251,82.5941 4.125,11.0676 4.125,-11.0676 z"
       id="path8"
       inkscape:connector-curvature="0"
       style="fill:#0072c6" />
    <path
       d="m 104.502,43.8605 h -8.25 v 33.2026 h 8.25 z"
       id="path10"
       inkscape:connector-curvature="0"
       style="fill:#0072c6" />
    <path
       d="m 100.375,30.303 c 2.277,0 4.125,1.7902 4.125,4.0009 l -0.074,4.023 -8.1755,-0.0719 v -3.9539 c 0,-2.2079 1.848,-3.9981 4.1245,-3.9981 z"
       id="path12"
       inkscape:connector-curvature="0"
       style="fill:#0072c6" />
    <path
       d="m 63.2505,27.5359 c 1.518,0 2.75,1.7902 2.75,4.0009 l -0.0495,4.0231 -5.4505,-0.072 V 31.534 c 0,-2.2079 1.232,-3.9981 2.75,-3.9981 z"
       id="path14"
       inkscape:connector-curvature="0"
       style="fill:#0072c6" />
    <path
       d="m 63.2499,33.0697 c -5.9235,0 -10.725,4.831 -10.725,10.7909 0,5.9598 4.8015,10.7908 10.725,10.7908 5.9235,0 10.725,-4.831 10.725,-10.7908 0,-5.9599 -4.8015,-10.7909 -10.725,-10.7909 z m 0,18.8148 c -4.3972,0 -7.975,-3.5997 -7.975,-8.0239 0,-4.4243 3.5778,-8.024 7.975,-8.024 4.3973,0 7.975,3.5997 7.975,8.024 0,4.4242 -3.5777,8.0239 -7.975,8.0239 z"
       id="path16"
       inkscape:connector-curvature="0"
       style="fill:#0072c6" />
    <path
       d="m 63.2499,51.9234 v -5.2958 l -5.1342,3.6163 -11.0468,34.2097 -0.7837,11.3775 6.0115,-9.6675 h 0.0027 L 63.3462,51.9538 Z"
       id="path18"
       inkscape:connector-curvature="0"
       style="fill:#0072c6" />
    <path
       d="M 79.4311,84.4536 68.3843,50.2439 63.2501,46.6276 v 5.2958 l -0.0963,0.0304 11.0468,34.2098 h 0.0027 l 6.0115,9.6675 z"
       id="path20"
       inkscape:connector-curvature="0"
       style="fill:#0072c6" />
    <path
       d="m 85.2505,71.5296 h -44 c -0.759,0 -1.375,-0.6198 -1.375,-1.3835 0,-0.7636 0.616,-1.3834 1.375,-1.3834 h 44 c 0.759,0 1.375,0.6198 1.375,1.3834 0,0.7637 -0.616,1.3835 -1.375,1.3835 z"
       id="path22"
       inkscape:connector-curvature="0"
       style="fill:#0072c6" />
  </svg>
</svg>

<svg aria-hidden="true" role="presentation">
<svg id="svg-blueprints"> <path d="M116.6 124.111C115.28 124.111 116.625 124.383 115.5 124.111V110.396H16.5005C15.9395 110.396 2.75049 110.269 2.75049 99.3284V13.555C2.75049 6.13976 9.16624 2.76416 15.1255 2.76416C21.0847 2.76416 27.5005 6.14253 27.5005 13.555V16.3219H104.775C119.645 16.3219 129.25 20.8375 129.25 35.9668V115.93C129.25 122.139 123.693 124.111 116.6 124.111Z" fill="#59B4D9"></path> <path opacity="0.7" d="M116.6 124.111C115.28 124.111 116.625 124.383 115.5 124.111V110.396H16.5005C15.9395 110.396 2.75049 110.269 2.75049 99.3284V13.555C2.75049 6.13976 9.16624 2.76416 15.1255 2.76416C21.0847 2.76416 27.5005 6.14253 27.5005 13.555V16.3219H104.775C119.645 16.3219 129.25 20.8375 129.25 35.9668V115.93C129.25 122.139 123.693 124.111 116.6 124.111Z" fill="white"></path> <path d="M104.775 13.5577H30.25C30.25 5.25708 23.375 0 15.125 0C6.875 0 0 5.25708 0 13.5577C0 13.5577 0 85.4967 0 96.5643C0 110.399 8.25 113.166 16.5 113.166H112.75V127C112.75 127 132 127 132 113.166V35.9695C132 19.3682 123.75 13.5577 104.775 13.5577ZM126.5 113.719C126.5 113.719 121 107.632 110.275 107.632H16.5C11 107.632 5.5 106.248 5.5 97.9477C5.5 93.244 9.075 88.2636 16.5 88.2636C24.75 88.2636 29.975 96.5643 29.975 96.5643H30.25V19.0915H107.525C118.525 19.0915 126.5 22.1351 126.5 33.2026V113.719Z" fill="#0072C6"></path> <path d="M96.251 82.5941L100.376 93.6617L104.501 82.5941H96.251Z" fill="#0072C6"></path> <path d="M104.502 43.8605H96.252V77.0631H104.502V43.8605Z" fill="#0072C6"></path> <path d="M100.375 30.303C102.652 30.303 104.5 32.0932 104.5 34.3039L104.426 38.3269L96.2505 38.255V34.3011C96.2505 32.0932 98.0985 30.303 100.375 30.303Z" fill="#0072C6"></path> <path d="M63.2505 27.5359C64.7685 27.5359 66.0005 29.3261 66.0005 31.5368L65.951 35.5599L60.5005 35.4879V31.534C60.5005 29.3261 61.7325 27.5359 63.2505 27.5359Z" fill="#0072C6"></path> <path d="M63.2499 33.0697C57.3264 33.0697 52.5249 37.9007 52.5249 43.8606C52.5249 49.8204 57.3264 54.6514 63.2499 54.6514C69.1734 54.6514 73.9749 49.8204 73.9749 43.8606C73.9749 37.9007 69.1734 33.0697 63.2499 33.0697ZM63.2499 51.8845C58.8527 51.8845 55.2749 48.2848 55.2749 43.8606C55.2749 39.4363 58.8527 35.8366 63.2499 35.8366C67.6472 35.8366 71.2249 39.4363 71.2249 43.8606C71.2249 48.2848 67.6472 51.8845 63.2499 51.8845Z" fill="#0072C6"></path> <path d="M63.2499 51.9234V46.6276L58.1157 50.2439L47.0689 84.4536L46.2852 95.8311L52.2967 86.1636H52.2994L63.3462 51.9538L63.2499 51.9234Z" fill="#0072C6"></path> <path d="M79.4311 84.4536L68.3843 50.2439L63.2501 46.6276V51.9234L63.1538 51.9538L74.2006 86.1636H74.2033L80.2148 95.8311L79.4311 84.4536Z" fill="#0072C6"></path> <path d="M85.2505 71.5296H41.2505C40.4915 71.5296 39.8755 70.9098 39.8755 70.1461C39.8755 69.3825 40.4915 68.7627 41.2505 68.7627H85.2505C86.0095 68.7627 86.6255 69.3825 86.6255 70.1461C86.6255 70.9098 86.0095 71.5296 85.2505 71.5296Z" fill="#0072C6"></path> </svg>
</svg>
